packages/core/src/svgs/tokens/mono/SNX.svg

<svg width="24" height="24" viewBox="0 0 24 24" fill="none" xmlns="http://www.w3.org/2000/svg">
<path d="M4.62514 19.9372L16.0125 4.09356C16.5501 3.14356 18.6126 3.37481 19.475 3.71231L8.30638 19.2435C7.85012 19.9623 5.59389 20.0123 4.6189 19.9311L4.62514 19.9372Z" fill="white" fill-opacity="0.45"/>
<path d="M13.2065 10.4375C13.8253 10.4561 14.3566 11.3562 14.3566 11.9999C14.3566 12.6436 13.8253 13.5437 13.2065 13.5624H10.1503C7.21284 13.5249 4.50659 10.6125 4.50659 7.61871C4.50659 4.61873 7.21284 2.03749 10.1503 2H18.0316C18.6503 2.01874 19.5002 2.5375 19.5002 3.53124C19.5002 4.51873 18.9815 5.09372 18.0316 5.12497H10.1503C9.48854 5.13288 8.8555 5.39719 8.38456 5.86229C7.91364 6.32738 7.64147 6.95703 7.62533 7.61871C7.62533 9.30626 8.48782 10.4375 10.1503 10.4375H13.2128H13.2065Z" fill="white"/>
<path d="M10.794 13.5624C10.1752 13.5437 9.64395 12.6437 9.64395 12C9.64395 11.3562 10.1752 10.4562 10.794 10.4375H13.8502C16.7877 10.475 19.5002 13.3874 19.5002 16.3812C19.5002 19.3811 16.7877 21.9624 13.8502 22H5.96904C5.05029 21.9749 4.5253 21.4999 4.5003 20.4937C4.48963 20.0867 4.63635 19.6912 4.90994 19.3897C5.18354 19.0881 5.56291 18.9038 5.96904 18.8749H13.8502C15.1627 18.8749 16.3753 17.875 16.3753 16.3812C16.3753 14.6938 15.5127 13.5624 13.8502 13.5624H10.794Z" fill="white"/>
</svg>

<svg xmlns="http://www.w3.org/2000/svg" width="24" height="24" fill="none" viewBox="0 0 24 24">
    <path fill="#fff" fill-opacity=".45" d="M4.625 19.937 16.013 4.094c.537-.95 2.6-.72 3.462-.382L8.306 19.244c-.456.718-2.712.768-3.687.687z"/>
    <path fill="#fff" d="M13.207 10.438c.618.018 1.15.918 1.15 1.562s-.532 1.544-1.15 1.562H10.15c-2.937-.037-5.643-2.95-5.643-5.943 0-3 2.706-5.582 5.643-5.619h7.882c.618.019 1.468.538 1.468 1.531 0 .988-.518 1.563-1.468 1.594H10.15a2.556 2.556 0 0 0-2.525 2.494c0 1.687.863 2.819 2.525 2.819h3.063z"/>
    <path fill="#fff" d="M10.794 13.562c-.619-.018-1.15-.918-1.15-1.562s.531-1.544 1.15-1.562h3.056c2.938.037 5.65 2.95 5.65 5.943 0 3-2.712 5.581-5.65 5.619H5.97c-.919-.025-1.444-.5-1.469-1.506a1.58 1.58 0 0 1 1.469-1.62h7.881c1.313 0 2.525-.999 2.525-2.493 0-1.687-.862-2.819-2.525-2.819z"/>
</svg>
